X:1
T:Balham, 76.76 D
T:Balham, 76.76 D
T:Composer unknown, before 1894
T:Public Domain Courtesy of the Cyber Hymnal™
C:Composer unknown, before 1894
Z:Public Domain
Z:Courtesy of the Cyber Hymnal™
%%score ( 1 2 ) ( 3 4 )
L:1/8
Q:1/4=105
M:6/8
K:A
V:1 treble 
V:2 treble 
V:3 bass 
V:4 bass 
V:1
 [CE][CE][CE] [DF]2 [DF] | [CE]3 [CA]2 [CA] | [^DA]2 [DA] (AG)[DA] | [EB]3- [EB]2 [EB] | %4
 [Fd]2 [Fd] [Fc]2 [Fc] | [FB]3 [DF]2 [DF] | [^DA]2 [DA] (AG)[DA] | [EB]6 [EB][EB][EB] (BA)[EB] | %8
 [Ec]3 [EA]2 [EA] | ([FA][EG])[EG] ([FA][EG])[DF] | [CE]6 | [Ec][DB][CA] ([FA][EG])[DF] | %12
 [CE]3 [DF]2 [Fd] | (cB)[EA] [EG]2 [DG] | [CA]6 |] %15
V:2
 x6 | x6 | x3 ^D2 x | x6 | x6 | x6 | x3 ^D2 x | x9 E2 x | x6 | x6 | x6 | x6 | x6 | E2 x4 | x6 |] %15
V:3
 [A,,A,][A,,A,][A,,A,] [D,A,]2 [D,A,] | [A,,A,]3 [A,,A,]2 [A,,A,] | %2
 [F,B,]2 [F,B,] [B,,B,]2 [B,,A,] | [E,G,]3- [E,G,]2 [E,G,] | [B,,B,]2 [B,,B,] [C,^A,]2 [C,A,] | %5
 [D,B,]3 [D,B,]2 [D,B,] | [F,B,]2 [F,B,] [B,,B,]2 [B,,A,] | %7
 [E,G,]6 [E,G,][E,G,][E,G,] (G,F,)[E,G,] | A,3 [C,A,]2 [C,A,] | [D,A,]2 [D,A,] [D,A,]2 [D,A,] | %10
 [A,,A,]6 | A,A,A, [D,A,]2 [D,A,] | [A,,A,]3 [D,A,]2 [D,A,] | (A,B,)[E,C] [E,B,]2 [E,B,] | %14
 [A,,A,]6 |] %15
V:4
 x6 | x6 | x6 | x6 | x6 | x6 | x6 | x9 E,2 x | A,3 x3 | x6 | x6 | A,A,A, x3 | x6 | E,2 x4 | x6 |] %15

